!!!OTL: Die Schlangenkoechin 'Mariele, wo bist du mit der Kunkel gewesen,
!!!ARE: Europa, Mitteleuropa, Deutschland / France, Elsass
!!!YOR: 4, S. 210
!!    1933 gedruckt in Heidelberg
!!!SCT: Q0079S
!!!YEM: Copyright 1995, estate of Helmut Schaffrath.
**kern
*ICvox
*Ivox
*M3/4
*k[f#]
*G:
{4dd
=1
8b
8dd
4dd
4dd
=2
4dd
4dd
8ee
8ee
=3
4dd
4cc
4cc
=4
4cc
4cc}
{4dd
=5
8b
8b
4b
4b
=6
4a
4g
4a
=7
[2.b
=8
4b]
4r}
{4dd
=9
4b
4dd
4dd
=10
4dd
4dd
4ee
=11
4dd
4cc
4cc
=12
4cc
4cc}
{4dd
=13
8b
8b
4b
4b
=14
4a
4g
4a
=15
[2.g
=16
4g]
4r}
==
!!!AGN: Ballade, Mord; Reigen - Tanz, antiphonal
!! Zweite und vierte Zeile = Refrain.
!!!ONB: ESAC (Essen Associative Code) Database: BALLADE
!!!AMT: simple triple
!!!AIN: vox
!!!EED: Helmut Schaffrath
!!!EEV: 1.0
*-
